X: 31073
T: Paddy Cronin's
R: reel
M: 4/4
K: Amajor
a2ed cAAc|Bcde cAA2|a2ed cAAB|B2GB A4|
a2ed cAAc|BcdB cAAB|cff2 cff2|ecBG ABcB||
AFEF CFF2|EFGA B2cB|AFEF CFF2|EFGA B2ce|
f3g affe|fgfe cBAB|cff2 gff2|ecBG Ac (3efg||

